icons/a4-landscape-16.svg

<?xml version="1.0" encoding="UTF-8"?><svg id="icons" xmlns="http://www.w3.org/2000/svg" viewBox="0 0 16 16"><defs><style>.cls-1{fill:none;}.cls-1,.cls-2,.cls-3{stroke-width:0px;}.cls-2{opacity:.25;}</style></defs><rect class="cls-1" width="16" height="16"/><path class="cls-3" d="M12.40039,1H0v10h1V2h10v4h4v6h1v-7.40039l-3.59961-3.59961ZM15,5h-3v-3h.31049l2.68951,2.68951v.31049ZM13,16h-1v-2h-4.20703l5.20703-5.20703v4.20703h1v1h-1v2ZM10.20703,13h1.79297v-1.79297l-1.79297,1.79297ZM4.5,9h-1l-3.5,7h1l1-2h4l1,2h1l-3.5-7ZM2.5,13l1.49597-2.99194,1.50403,2.99194h-3Z"/><path class="cls-2" d="M11,4H1v-2h10v2Z"/></svg>

<svg xmlns="http://www.w3.org/2000/svg" viewBox="0 0 16 16"><path stroke-width="0" fill="none" d="M0 0h16v16H0z"/><path d="M12.4 1H0v10h1V2h10v4h4v6h1V4.6L12.4 1zM15 5h-3V2h.31L15 4.69V5zm-2 11h-1v-2H7.793L13 8.793V13h1v1h-1v2zm-2.793-3H12v-1.793L10.207 13zM4.5 9h-1L0 16h1l1-2h4l1 2h1L4.5 9zm-2 4l1.496-2.992L5.5 13h-3z" stroke-width="0"/><path d="M11 4H1V2h10v2z" opacity=".25" stroke-width="0"/></svg>
